X:1
T:Adagio in A Major
T:Adagio in A Major
T:Alexander Morovsky
%%score 1 2 3 4
L:1/8
Q:1/4=80
M:6/8
K:A
V:1 treble nm="Violin" snm="Vln."
V:2 treble nm="Violin" snm="Vln."
V:3 alto nm="Viola" snm="Vla."
V:4 bass nm="Violoncello" snm="Vc."
V:1
 c3 B2 e | A2 B/c/ B2 c/d/ | c3 B2 e | A6 | z2 d d2 z | z2 c c2 z | z2 B B2 z | z2 z A3 | %8
 z2 a a z2 | z2 e e z2 | z2 d d z2 | z2 c c2 z | A2 a a2 g/f/ | z2 c' c'3 | e2 G G2 G | A6 |] %16
V:2
 E3 G2 e | C2 B/c/ D2 c/d/ | E3 G2 e | C6 | z2 F F2 z | z2 E E2 z | z2 D D2 z | z2 z C3 | %8
 z2 f f z2 | z2 c c z2 | z2 G G z2 | z2 E E2 z | A2 f f2 e/d/ | e2 a a3 | e2 D D2 D | C6 |] %16
V:3
 E3 D2 E | C2 B,/C/ D2 C/D/ | E3 D2 E | C6 | D3- D2 E/D/ | C3- C2 D/C/ | B,3- B,2 C/B,/ | %7
 A,3- A,3 | A4 G>F | E4 F>E | D4 F>E | C3- C2 B/A/ | A2 F F2 E/D/ | c6 | E2 D D2 D | C6 |] %16
V:4
 A,,/E,/A,/E,/A,/E,/ A,,/E,/G,/E,/G,/E,/ | A,,/E,/A,/E,/A,/E,/ A,,/E,/G,/E,/G,/E,/ | %2
 A,,/E,/A,/E,/A,/E,/ A,,/E,/G,/E,/G,/E,/ | A,,/E,/A,/E,/A,/E,/ A,,/E,/A,/E,/A,/E,/ | %4
 A,,/F,/A,/F,/A,/F,/ A,,/F,/A,/F,/A,/F,/ | A,,/E,/A,/E,/A,/E,/ A,,/E,/A,/E,/A,/E,/ | %6
 A,,/E,/G,/E,/G,/E,/ A,,/E,/G,/E,/G,/E,/ | A,,/C,/E,/C,/E,/C,/ A,,/C,/E,/C,/E,/C,/ | %8
 A,,/D,/F,/D,/F,/D,/ A,,/D,/F,/D,/F,/D,/ | A,,/E,/A,/E,/A,/E,/ A,,/E,/A,/E,/A,/E,/ | %10
 A,,/E,/G,/E,/G,/E,/ A,,/E,/G,/E,/G,/E,/ | A,,/E,/A,/E,/A,/E,/ A,,/E,/A,/E,/A,/E,/ | %12
 A,,/D,/F,/D,/F,/D,/ A,,/D,/F,/D,/F,/D,/ | A,,/E,/A,/E,/A,/E,/ A,/E,/A,/E,/A, | %14
 A,,/E,/G,/E,/G,/E,/ G,/E,/G,/E,/G,/E,/ | A,,/E,/A,/E,/A,/E,/ A,,3 |] %16

